images/romb.svg

<svg fill="none" height="26" viewBox="0 0 26 26" width="26" xmlns="http://www.w3.org/2000/svg"><path clip-rule="evenodd" d="m12.809 1.57828 11.3137 11.31372-11.3137 11.3137-11.31375-11.3137zm0-1.414218.7071.707107 11.3137 11.313731.7071.7071-.7071.7071-11.3137 11.3137-.7071.7071-.7071-.7071-11.313755-11.3137-.7071069-.7071.7071069-.7071 11.313755-11.313731zm5.2098 12.728438-5.2759-5.27581-5.27579 5.27581 5.27579 5.2758z" fill="#179e6c" fill-rule="evenodd"/></svg>

<svg width="26" height="26" viewBox="0 0 26 26" fill="none" xmlns="http://www.w3.org/2000/svg">
<path fill-rule="evenodd" clip-rule="evenodd" d="M12.809 1.57828L24.1227 12.892L12.809 24.2057L1.49525 12.892L12.809 1.57828ZM12.809 0.164062L13.5161 0.871169L24.8298 12.1849L25.5369 12.892L24.8298 13.5991L13.5161 24.9128L12.809 25.6199L12.1019 24.9128L0.788145 13.5991L0.0810381 12.892L0.788145 12.1849L12.1019 0.871169L12.809 0.164062ZM18.0188 12.8925L12.7429 7.61669L7.46711 12.8925L12.7429 18.1683L18.0188 12.8925Z" fill="#179E6C"/>
</svg>
